X:323
T:Con Cassidy's
R:jig
D:Paddy Glackin: In Full Spate
D:Mair\'ead N\'i Mhaonaigh & Frankie Kennedy: Ceol Aduaidh
Z:id:hn-jig-323
M:6/8
K:G
~B3 cBc|dgg d2g|fed cAF|Ggg d2c|
~B3 cBc|dgg d2g|fed cAF|1 ~G3 G2A:|2 ~G3 GBd||
|:gGG fGG|efg d2c|BAG Aag|fed efg|
agf gfe|fed fga|gfe def|1 gGG GBd:|2 gGG G2A||

